X:1
T:The Big Ship  "Arranged by Terry Tully"
M:6/8
L:1/8
Q:80
C:Traditional Irish
S:Jig
K:HP
|: f | \
{g}Bfd{g}Bcd | \
{g}cB{G}A{g}ec{d}A | \
{g}Bfd{g}Bcd |
{g}cB{G}A{gBd}B2:| [ | \
c | \
d{e}d{c}d{g}dcB | \
c{e}c{G}c{g}cB{G}A |
d{e}d{c}d{g}dcB | \
{g}cB{G}A{gBd}B2cd{e}d{c}d{g}dcB | \
c{e}c{G}c{g}cB{G}A |
{g}caf{g}ec{d}A | \
{g}cB{G}A{gBd}B2|]
